src/icons/outline/users/skills.svg

<svg width="24" height="24" viewBox="0 0 24 24" fill="none" xmlns="http://www.w3.org/2000/svg">
<g clip-path="url(#clip0_4922_1072)">
<path fill-rule="evenodd" clip-rule="evenodd" d="M12.2358 8.69141C14.6074 8.81267 16.48 10.7936 16.48 13.2031C16.48 15.3924 14.9341 17.2276 12.8726 17.6357C15.1933 17.9293 17.3188 19.3869 18.3813 21.6855C18.5548 22.0614 18.3908 22.5068 18.0151 22.6807C17.6391 22.8545 17.1928 22.6904 17.019 22.3145C15.7191 19.5026 12.4224 18.3024 9.66455 19.6104L9.66357 19.6113C8.48812 20.1667 7.54256 21.1219 6.9917 22.3145C6.818 22.6905 6.37164 22.8544 5.99561 22.6807C5.61996 22.5069 5.45593 22.0614 5.62939 21.6855C6.32656 20.1762 7.52605 18.9619 9.02197 18.2549C9.70893 17.9291 10.4222 17.726 11.1362 17.6357C9.07563 17.2268 7.52979 15.3917 7.52979 13.2031C7.5298 10.716 9.52567 8.68555 12.0054 8.68555L12.2358 8.69141ZM12.0054 10.1855C10.37 10.1855 9.0298 11.5285 9.02979 13.2031C9.02979 14.8778 10.37 16.2207 12.0054 16.2207C13.6406 16.2206 14.98 14.8777 14.98 13.2031C14.98 11.5285 13.6406 10.1857 12.0054 10.1855Z" fill="#3C3B44"/>
<path fill-rule="evenodd" clip-rule="evenodd" d="M3.25342 10.251C4.07694 10.3159 4.75765 10.8568 5.03662 11.5957H6.41162L6.48877 11.5996C6.86673 11.6382 7.16162 11.9575 7.16162 12.3457C7.16152 12.7598 6.82577 13.0957 6.41162 13.0957H5.03564C4.7378 13.8836 3.98388 14.4463 3.08643 14.4463C1.91977 14.4463 1.00073 13.4878 1.00049 12.3457C1.00049 11.19 1.92315 10.2441 3.08643 10.2441L3.25342 10.251ZM3.08643 11.7441C2.7675 11.7441 2.50049 12.0024 2.50049 12.3457C2.50073 12.6825 2.77118 12.9463 3.08643 12.9463C3.37917 12.9463 3.62857 12.7289 3.66748 12.4277C3.66454 12.4008 3.6626 12.3734 3.6626 12.3457C3.6626 12.3177 3.6645 12.2899 3.66748 12.2627C3.62867 11.9614 3.37924 11.7441 3.08643 11.7441Z" fill="#3C3B44"/>
<path fill-rule="evenodd" clip-rule="evenodd" d="M20.9146 10.2441C22.0778 10.2441 23.0005 11.19 23.0005 12.3457C23.0002 13.5012 22.0777 14.4463 20.9146 14.4463C20.0724 14.4463 19.3595 13.9467 19.0278 13.2393L18.9663 13.0957H17.5796C17.1654 13.0957 16.8297 12.7598 16.8296 12.3457C16.8296 11.9315 17.1654 11.5957 17.5796 11.5957H18.9644C19.262 10.8074 20.0168 10.2441 20.9146 10.2441ZM20.9146 11.7441C20.5962 11.7441 20.3296 12.0014 20.3286 12.3438V12.3477C20.3299 12.6835 20.5999 12.9463 20.9146 12.9463C21.2333 12.9463 21.5003 12.6888 21.5005 12.3457C21.5005 12.0024 21.2335 11.7441 20.9146 11.7441Z" fill="#3C3B44"/>
<path fill-rule="evenodd" clip-rule="evenodd" d="M5.74463 3.94238C6.90784 3.94238 7.83045 4.88734 7.83057 6.04297C7.83057 6.35149 7.76497 6.64512 7.646 6.90918L8.78467 8.06055C9.07567 8.35511 9.0723 8.82993 8.77783 9.12109C8.48327 9.4121 8.00844 9.4097 7.71729 9.11523L6.58252 7.96777C6.32606 8.08141 6.04229 8.14453 5.74463 8.14453C4.57798 8.14434 3.65869 7.18513 3.65869 6.04297C3.65881 4.88746 4.58158 3.94257 5.74463 3.94238ZM5.74463 5.44238C5.42592 5.44257 5.1588 5.69989 5.15869 6.04297C5.15869 6.37988 5.42938 6.64434 5.74463 6.64453C5.88203 6.64453 6.01242 6.59418 6.11475 6.50879C6.12714 6.49454 6.14016 6.48029 6.15381 6.4668C6.16568 6.45506 6.17751 6.4434 6.18994 6.43262C6.27696 6.32876 6.33057 6.19356 6.33057 6.04297C6.33046 5.69977 6.06349 5.44238 5.74463 5.44238Z" fill="#3C3B44"/>
<path fill-rule="evenodd" clip-rule="evenodd" d="M18.2456 3.94238C19.4123 3.94238 20.3314 4.90079 20.3315 6.04297C20.3315 7.19869 19.4089 8.14453 18.2456 8.14453C17.9436 8.14448 17.6581 8.07993 17.4009 7.96484L16.2632 9.11523C15.9719 9.40949 15.4971 9.41224 15.2026 9.12109C14.9083 8.82989 14.9058 8.35504 15.1968 8.06055L16.3423 6.90137C16.2248 6.63805 16.1597 6.34685 16.1597 6.04297C16.1598 4.88746 17.0826 3.94257 18.2456 3.94238ZM18.2456 5.44238C17.9269 5.44257 17.6598 5.69989 17.6597 6.04297C17.6597 6.37988 17.9304 6.64434 18.2456 6.64453C18.5645 6.64453 18.8315 6.38628 18.8315 6.04297C18.8314 5.70604 18.5609 5.44238 18.2456 5.44238Z" fill="#3C3B44"/>
<path fill-rule="evenodd" clip-rule="evenodd" d="M11.9956 1.25C13.1588 1.25008 14.0815 2.19588 14.0815 3.35156C14.0814 4.24356 13.5314 5.01021 12.7456 5.31348V6.95117C12.7454 7.36518 12.4096 7.70109 11.9956 7.70117C11.5815 7.70117 11.2458 7.36522 11.2456 6.95117V5.3125C10.4583 5.00654 9.90986 4.23377 9.90967 3.35156C9.90967 2.19583 10.8323 1.25 11.9956 1.25ZM11.9956 2.75C11.6767 2.75 11.4097 3.00826 11.4097 3.35156C11.4099 3.68837 11.6804 3.95215 11.9956 3.95215C12.3143 3.95207 12.5813 3.69459 12.5815 3.35156C12.5815 3.00831 12.3145 2.75008 11.9956 2.75Z" fill="#3C3B44"/>
</g>
<defs>
<clipPath id="clip0_4922_1072">
<rect width="24" height="24" fill="white"/>
</clipPath>
</defs>
</svg>

<svg xmlns="http://www.w3.org/2000/svg" width="24" height="24" fill="none" viewBox="0 0 24 24"><g fill="currentColor" fill-rule="evenodd" clip-path="url(#a)" clip-rule="evenodd"><path d="M12.236 8.691c2.371.122 4.244 2.103 4.244 4.512 0 2.19-1.546 4.025-3.607 4.433a7.04 7.04 0 0 1 5.508 4.05.75.75 0 0 1-1.362.628c-1.3-2.811-4.597-4.012-7.354-2.704l-.001.001a5.57 5.57 0 0 0-2.672 2.703.75.75 0 0 1-1.363-.628 7.07 7.07 0 0 1 3.393-3.431 7 7 0 0 1 2.114-.62c-2.06-.408-3.606-2.243-3.606-4.432 0-2.487 1.996-4.517 4.475-4.517zm-.23 1.494c-1.636 0-2.976 1.343-2.976 3.018s1.34 3.018 2.975 3.018 2.975-1.343 2.975-3.018-1.34-3.017-2.975-3.017m-8.752.065a2.08 2.08 0 0 1 1.784 1.345h1.375l.077.004a.75.75 0 0 1-.077 1.496H5.036a2.08 2.08 0 0 1-1.95 1.35c-1.166 0-2.085-.958-2.086-2.1a2.09 2.09 0 0 1 2.086-2.102zm-.167 1.493a.59.59 0 0 0-.586.602c0 .336.271.6.586.6a.59.59 0 0 0 .581-.518 1 1 0 0 1 0-.165.59.59 0 0 0-.58-.519m17.828-1.5A2.09 2.09 0 0 1 23 12.346a2.09 2.09 0 0 1-2.085 2.1c-.843 0-1.555-.5-1.887-1.207l-.062-.143H17.58a.75.75 0 0 1 0-1.5h1.384a2.08 2.08 0 0 1 1.95-1.352m0 1.5a.59.59 0 0 0-.586.6v.004a.596.596 0 0 0 .586.598.59.59 0 0 0 .585-.6.59.59 0 0 0-.585-.602M5.745 3.942A2.09 2.09 0 0 1 7.83 6.043c0 .308-.066.602-.185.866l1.139 1.152a.75.75 0 0 1-1.068 1.054L6.583 7.968c-.257.113-.54.177-.838.177-1.167 0-2.086-.96-2.086-2.102 0-1.156.923-2.1 2.086-2.1m0 1.5a.59.59 0 0 0-.586.601c0 .337.27.601.586.602.137 0 .267-.05.37-.136a1 1 0 0 1 .075-.076.6.6 0 0 0 .14-.39.59.59 0 0 0-.585-.6m12.501-1.502c1.166 0 2.085.959 2.085 2.101a2.09 2.09 0 0 1-2.085 2.102c-.302 0-.588-.065-.845-.18l-1.138 1.15a.75.75 0 0 1-1.066-1.054l1.145-1.16a2.1 2.1 0 0 1-.182-.858c0-1.156.923-2.1 2.086-2.1m0 1.5a.59.59 0 0 0-.586.601c0 .337.27.601.586.602a.59.59 0 0 0 .585-.602c0-.337-.27-.6-.585-.6m-6.25-4.194a2.09 2.09 0 0 1 2.085 2.102c0 .892-.55 1.658-1.335 1.961v1.638a.75.75 0 0 1-1.5 0V5.313A2.11 2.11 0 0 1 9.91 3.351a2.09 2.09 0 0 1 2.086-2.102m0 1.5a.59.59 0 0 0-.586.602c0 .336.27.6.586.6a.59.59 0 0 0 .585-.6.59.59 0 0 0-.585-.602"/></g><defs><clipPath id="a"><path fill="currentColor" d="M0 0h24v24H0z"/></clipPath></defs></svg>
